X:103
T:Sailor's Delight
R:Hornpipe
O:England
M:3/2
A:Lancashire
B:Winder
K:G
F2f2 efge f2cB | ABcA F2B2 ABcA |\
G2g2 e2dc d4 | D2G2 G2B2 ABcA ::\
a2gf efge f2cB | ABcA F2B2 ABcA |\
a2gf efge d4 | D2G2 G2B2 ABcA ::\
B2dB ABcA G4 | f2gf f2ed ABcA |\
B2dB ABcA G4 | D2G2 G2B2 ABcA :|**
